X: 522
T: Cânân Okuyor...
C: Ali Rızâ Avni Tınaz
O: Turkey
F: http://compmusic.upf.edu/node/140
N: acemasiran--sarki--senginsemai--canan_okuyor--ali_riza_avni_tinaz
N: makam= acemasiran
N: form= sarki
N: usul= senginsemai = 6/4
M: 6/4
L: 1/16
K: C _B   
Q: 1/4=72
%%MIDI tuningsystem comma53
c4 f4 e2f2 g2{a}gf {g}f8  | f3e d2c2 .c2(3dcB .A2(3BAG F6z2  | 
w:  ARANAĞME  |   | 
F4 G2A2 Bcde fgac' b6a2  | (3.d'2.c'2.b2 (3.a2.g2.f2 (3.e2.d2.c2 efge f8  | 
w:   |   | 
.g4 (3_e2d2c2 .f4 {f}(3d2c2B2 {e}d4 (3B2A2G2  | \
w:   | 
{a}(3g2f2_e2 {e}(3d2c2B2 {B}(3A2G2F2 EFGE F6z2  | 
w:   | 
c4 f4 e2f2 g2{a}gf {g}f8  | f3e d2c2 .c2(3dcB .A2(3BAG F6z2  | 
w:  ARANAĞME  |   | 
F4 G2A2 Bcde fgac' b6a2  | (3.d'2.c'2.b2 (3.a2.g2.f2 (3.e2.d2.c2 efge f8  | 
w:   |   | 
.g4 (3_e2d2c2 .f4 {f}(3d2c2B2 {e}d4 (3B2A2G2  | \
w:   | 
{a}(3g2f2_e2 {e}(3d2c2B2 {B}(3A2G2F2 EFGE F6z2  | 
w:   | 
c4 f4 e2f2 g2{a}gf {g}f8  | f3a g2f2 e3d gfed c8  | \
w:  Câ nân  o *  ku *  *  *  *  yor   |  aş *  *  *  kın  *  i *  *  *  lâ  | 
d2ed .c4 d2e2 f2g2 a2gf efgf  | 
w:  hî  *  *  *  se *  si *  dir   | 
f6z2 .c2(3dcB .A2(3BAG F6z2  | c4 f4 e2f2 g2{a}gf {g}f8  | \
w:  bu   SAZ  |  Câ nân  o *  ku *  *  *  *  yor   | 
f3a g2f2 e3d gfed c8  | 
w:  aş *  *  *  kın  *  i *  *  *  lâ  | 
d2ed .c4 d2e2 f2g2 a2gf efgf  | f6z2 c4 d2e2 f8  | 
w:  hî  *  *  *  se *  si *  dir   |  bu   SAZ  | 
f3g a4 d3e fed^3/4c d8  | c3_e d2c2 B3A (3A2B2=B2 c6d2  | 
w:  Gül *  zâr_ ı  *  e *  *  *  zel   |  bül *  *  *  bü *  lü *  *  nün   | 
c2B2 A2G2 F3E D4 A2GF EFGF  | F8 c4 d2e2 f8  | \
w:  nağ *  *  *  me *  si dir   |  bu   SAZ  | 
f3g a4 d3e fed^3/4c d8  | 
w:  Gül *  zâr_ ı  *  e *  *  *  zel   | 
c3_e d2c2 B3A (3A2B2=B2 c6d2  | c2B2 A2G2 F3E D4 A2GF EFGF  | 
w:  bül *  *  *  bü *  lü *  *  nün   |  nağ *  *  *  me *  si dir   | 
F8 (3c2d2e2 (3f2g2b2 a8  | g3a a4 (3a2g2f2 (3c'2b2a2 a6z2  | \
w:  bu   SAZ  |  Gûş  *  ey le *  *  ye *  *  nin   | 
g2f2 e2_3/4d2 (3c2_2/4B2A2 (3A2B2c2 =d8  | 
w:  gön *  *  *  lü  *  *  ge *  *  çer   | 
A2B6 B2A2 _e4 (3e2d2c2 (3B2A2G2  | \
w:  her  *  he *  ve sin  | 
A8 (3c2d2e2 (3f2g2b2 a8  | g3a a4 (3a2g2f2 (3c'2b2a2 a6z2  | 
w:  den   SAZ  |  Gûş  *  ey le *  *  ye *  *  nin   | 
a2b4a2 (3a2g2f2 (3e2f2^f2 g6(3ede  | \
w:  gön *  *  lü  *  *  ge *  *  çer   | 
c6z2 d2e2 f2g2 a2gf efgf  | 
w:  her  he *  ve *  sin  | 
f6z2 c4 d2e2 f8  | f3g a4 d3e fed^3/4c d8  | \
w:  den   SAZ  |  Gül *  zâr_ ı  *  e *  *  *  zel   | 
c3_e d2c2 B3A (3A2B2=B2 c6d2  | 
w:  bül *  *  *  bü *  lü *  *  nün   | 
c2B2 A2G2 F3E D4 A2GF EFGF  | F8 c4 d2e2 f8  | \
w:  nağ *  *  *  me *  si dir   |  bu   SAZ  | 
f3g a4 d3e fed^3/4c d8  | 
w:  Gül *  zâr_ ı  *  e *  *  *  zel   | 
c3_e d2c2 B3A (3A2B2=B2 c6d2  | c2B2 A2G2 F3E D4 A2GF EFGF  | 
w:  bül *  *  *  bü *  lü *  *  nün   |  nağ *  *  *  me *  si dir   | 
F8 |
w:  bu    | 


